!!!OTL: Auf Freiersf&uuml;&szlig;en (258), S. 553
!!!id: T0448
**kern
*clefG2
*k[]
*a:
{8a
=1
8a
4a
8dd
8ee
8dd
=2yy
8cc
=3
4dd
8dd
4dd}
=4
{8b
=5
4b
8b
4ee
8cc
=6
4b
8a
4a}
=7
{8a
=8
4b
8cc
8dd
8cc
8a
=9
4.b
4.g}
=10
{4cc
8b
4a
8dd
=11
4ee
8dd
4b}
=12
{8dd
=13
4ee
8dd
4ee
8cc
=14
4.b
4.a}
==
*-
!!!minrhy: 8
!!!meters: 6/8 ]  ZZ[5
!!!cut: Auf Freiersf&uuml;&szlig;en (258), S. 553
!!!reg: Luxemburg
!!!trd: Singendes Volk, Esch-Alzette, 1937 posth.
!!!rhy1:   X_XXXX  X_XX_
!!!rhy2: X  X_XX_X  X_XX_
!!!key: T0448  08  A 6/8 ]  ZZ[5
!!!mod: SECHSTONSKALA MOLL ?]  AMBITUS[6
!!!kad: 41-7b21
!!!akz: 1544_2521_242-7b_3b152_5521_
!!!fot: 'a__b__c__d__bw_
!!!for: 'a__b__c__bv_d__
!!!fok: '/__^d_^d_Sd_\__
!! PHRAS[GEMISCHTTAKTIG]
!!!fkt: Scherz-, Spiel-, Spottlied
!!!bem: Heffingen, fff Anna Kimmel, 28.8.1934
!! THILL; Mathias
!! PR[50] 2K[6] 2G[19] 3K[3] 3G[3] 4A[0] 4Ü[0] 5A[0] 6K[0] 6G[0]
!! 7K[0] 7G[0] 8A[0] MEHR[0] SI[31] ABS[32] SR[25] SP[6]
!! ST[5] 2k[0] 2g[6] 3k[6] 3g[3] 4d[0] 4ü[0] 5d[3] 6k[0] 6g[0]
!! 7k[0] 7g[0] 8d[0] mehr[0] si[19] dm[+12] sr[6] sp[13]
!! 1F[63] 2F[37] 3F[0] 4F[0] LF[0] 2P[0] 3P[0] 4P[0] TRI[0] DF[2] AB[35]
!! TF[0] U3K[0] U3[0] U4[0] U4Ü[0] U5[0] U6K[0] U6[0] U7K[0] U7[0]
!! N1[9] N2K[0] N2[18] N3K[0] N3[30] N4[12] N4Ü[0] N5[27] N6K[0] N6[3]
!!!n7k: 0] N7[0] O1[0] O2K[0] O2[0] O3K[0] O3[0] HÖ[0
!!!RNB: symbol: &szlig; = sz ligature (UTF-8: ÃŸ)
!!!RNB: symbol: &uuml;  = u umlaut (UTF-8: Ã¼)
